X:60
T:Sheep May Safely Graze
C:JS Bach
N:TablEdited by Wendy Anthony November 2004
L:1/8
Q:1/4=59
M:4/4
K:A
[ec][e/c/]c/ [ec][e/c/]c/ [ec][fd] [fd][af] | [dB][d/B/]B/ [dB][d/B/]B/ [dB][gd] [gB][bd] | 
[ac]a/4b/4c'/ a/c'/b/e/ [acE]a/4b/4c'/ a/c'/b/e/ | [acA]c'/4d'/4e'/ c'/a/b/g/ [ac]c'/4d'/4e'/ c'/[a/c/][b/d/][g/B/] | 
[acA]A, cA, [B2D2] [BD]c | [d2E2] [fBE]e [c2E2] BA | [cA]A G[FA,] [B2E2] Bc | 
[GB,]B, [FA,]E [E2B,2] GF | [ecE][e/c/]c/ [ec][e/c/]c/ [ec][fd] [fd][af] | [fd][f/d/]d/ [fd][f/d/]d/ [fd][ge] [ge]b | 
[eA]a/4b/4c'/ a/c'/b/g/ [ae]c BA | [eA]a/4b/4c'/ a/c'/b/g/ [ae]c BA | [dAB,]B, Ge c[BD] [AE]B | 
[GE]E D[AE] [ec][e/c/]c/ [ec][e/c/]c/ | [ec][fdD] [fdF][afA] [dB][d/B/]B/ [dB][d/B/]B/ | 
[ge][ac] [ac][bd] [ac]c'/4d'/4e'/ c'/[a/c/][b/d/][g/B/] | [acA][e/c/][c/A/] [ec=G][e/c/][c/A/] [ec][fdF] [fdD][af] | 
[dB][d/B/]B/ [dB][d/B/]B/ [dB][ge] [gBD][bdG] | [ac]a/4b/4c'/ a/c'/b/e/ [acE]a/4b/4c'/ a/c'/b/e/ | 
[acA]c'/4d'/4e'/ c'/a/b/g/ [ac]c'/4d'/4e'/ c'/[a/c/][b/d/][g/B/] | [a2c2E2A,2] A,6 | 
 

